X:1
T:Title
%%score ( 1 2 ) ( 3 4 )
L:1/8
M:6/8
K:Bb
V:1 treble nm="Grand Piano, Piano"
V:2 treble 
V:3 bass nm="Grand Piano, Piano"
V:4 bass 
V:1
 z3 z2[Q:1/4=100] [DF] | [DF]2 [DF] [B,D]2 [DF] | [EG]3 [GB][FA][EG] | [DF]2 [DF] [CE]2 [A,F] | %4
w: 1.~I~|gave~ My~ life~ for~|thee,~ * * My~|pre cious~ blood~ I~|
[M:5/8] [B,D]-[B,D]- [B,D]3 |[M:1/8] [DF] |[M:3/4] [DF]2 [DF] [B,D]2 [DF] | [EG]3 [GB] [FA][EG] | %8
w: shed,~ * *|That~|thou~ might'st~ ran somed~|be,~ * * And~|
 z2 z A z2 |[M:5/8] [DB]-[DB]- [DB]3 |[M:1/8] [DB] |[M:3/4] [Ec]2 [Ec][Ec] [DB][CA] | %12
w: from~|dead;~ * *|I~|gave,~ I~ gave~ * My~|
 [DB]2 [DB] [DF]2 [DB] | z2 z A z2 |[M:5/8] [DB]-[DB]- [DB]3 |[M:1/8] [DB] | %16
w: life~ for~ thee,~ What~|giv'n~|Me?~ * *|I~|
[M:3/4] [Ec]2 [Ec][Ec] [DB][CA] | [DB]2 [DB] [DF]2 [DB] | z2 z A z2 |[M:5/8] [DB]-[DB]- [DB]3 |] %20
w: gave,~ I~ gave~ * My~|life~ for~ thee,~ What~|giv'n~|Me?~ * *|
V:2
 x6 | x6 | x6 | x6 |[M:5/8] x5 |[M:1/8] x |[M:3/4] x6 | x6 | [DF]2 FE- [EG][EA] |[M:5/8] x5 | %10
w: ||||||||* * * * the~||
[M:1/8] x |[M:3/4] x6 | x6 | [EA]2 [EA]E- [EG][EA] |[M:5/8] x5 |[M:1/8] x |[M:3/4] x6 | x6 | %18
w: |||* * * * for~|||||
 [EA]2 [EA]E- [EG][EA] |[M:5/8] x5 |] %20
w: * * * * for~||
V:3
 z3 z2 [B,,B,] | [B,,B,]2 [B,,B,] [B,,F,]2 [B,,B,] | [E,B,]3- [E,B,]2 [E,B,] | %3
 [F,B,]2 [F,B,] [F,A,]2 F, |[M:5/8] [B,,F,]-[B,,F,]- [B,,F,]3 |[M:1/8] [B,,B,] | %6
[M:3/4] [B,,B,]2 [B,,B,] [B,,F,]2 [B,,B,] | [E,B,]4- [E,B,][E,B,] | [F,B,]2 [F,D] [F,C]2 [F,C] | %9
[M:5/8] [B,,B,]-[B,,B,]- [B,,B,]3 |[M:1/8] [B,,B,] |[M:3/4] [F,A,]2 [F,A,]A, B,[F,C] | %12
 [B,,B,]2 [B,,B,] [B,,B,]2 [B,,B,] | [F,C]2 [F,C] [F,C]2 F, |[M:5/8] [B,,F,]-[B,,F,]- [B,,F,]3 | %15
[M:1/8] [B,,B,] |[M:3/4] [F,A,]2 [F,A,]A, B,[F,C] | [B,,B,]2 [B,,B,] [B,,B,]2 [B,,B,] | %18
 [F,C]2 [F,C] [F,C]2 F, |[M:5/8] [B,,F,]-[B,,F,]- [B,,F,]3 |] %20
V:4
 x6 | x6 | x6 | x6 |[M:5/8] x5 |[M:1/8] x |[M:3/4] x6 | x6 | x6 |[M:5/8] x5 |[M:1/8] x | %11
[M:3/4] z2 z .F,3 | x6 | x6 |[M:5/8] x5 |[M:1/8] x |[M:3/4] z2 z .F,3 | x6 | x6 |[M:5/8] x5 |] %20

